X:351893926388493
T:6-7-2-7-7-8-7-5-3-6-2-6-3-4-12-6
%%setfont-1 Courier-Bold 8
T:$1K.516f::148:157:141:167:154:133:118:100:117:143:26:125:174:58:44:93::$0
T:$1Perm. No.: 351893926388493$0
M:3/8
L:1/8
Q:1/8=111
%%staves [1 2]
V:1 clef=treble
V:2 clef=bass
K:C
%1
[V:1]|: c'/b/c'/g/e/c/ |\
[V:2]|: [E,2C,2]z |\
%2
[V:1] e/d/e/g/c'/g/ |\
[V:2] C,2z |\
%3
[V:1] d/e/f/d/c/B/ |\
[V:2] [G,2B,,2]G,, |\
%4
[V:1] cc/d/e |\
[V:2] [E,2C,2]z |\
%5
[V:1] d/^c/d/^f/a/f/ |\
[V:2] C,2z |\
%6
[V:1] dg/d/B/d/ |\
[V:2] [G,2B,,2]z |\
%7
[V:1] e/a/g/b/^f/a/ \
[V:2] C,D,D,, \
%8a
[V:1]|1 [g2d2B2G2]z :|2
[V:2]|1 G,,G,/=F,/E,/D,/ :|2
%8b
[V:1] [g2d2B2G2]z |:\
[V:2] G,,B,/G,/^F,/E,/ |:\
%9
[V:1] d/A/d/^f/a/f/ |\
[V:2] [^F,2D,2]z |\
%10
[V:1] gd/B/G |\
[V:2] [D,2B,,2][D,B,,] |\
%11
[V:1] [ec][ec][ec] |\
[V:2] C,/E,/G,/E,/C/C,/ |\
%12
[V:1] g/e/d/B/G |\
[V:2] G,G,,z |\
%13
[V:1] Gce |\
[V:2] [E,/C,/]G,/[E,/C,/]G,/[E,/C,/]G,/ |\
%14
[V:1] gec |\
[V:2] [E,/C,/]G,/[E,/C,/]G,/[E,/C,/]G,/ |\
%15
[V:1] Af/d/a/g/ |\
[V:2] F,2G, |\
%16
[V:1] c2z :|]
[V:2] C,G,,C,, :|]
